X: 1254
T: An Drochaid Chliùiteach
R: three-two
M: 3/2
K: Amixolydian
ce (3(eee) feef ec a2|ce (3(eee) feef ec B2|
ce (3(eee) feef ec a2|A2 AB c2 ec BG A2:|
ae (3(eee) feef ec a2|ae (3(eee) feef ec B2|
ae (3(eee) feef ec a2|A2 AB c2 ec BG A2:|

